<?xml version="1.0" encoding="UTF-8"?>
<map version="1.10" tiledversion="1.12.2" orientation="orthogonal" renderorder="right-down" width="40" height="20" tilewidth="32" tileheight="32" infinite="0" nextlayerid="4" nextobjectid="6">
 <editorsettings>
  <export target="../public/assets/maps/level-01.json" format="json"/>
 </editorsettings>
 <tileset firstgid="1" name="platformer" tilewidth="32" tileheight="32" tilecount="2" columns="2">
  <image source="../public/assets/tilesets/platformer-tiles.png" width="64" height="32"/>
  <tile id="0">
   <properties>
    <property name="solid" type="bool" value="true"/>
   </properties>
  </tile>
  <tile id="1">
   <properties>
    <property name="solid" type="bool" value="false"/>
   </properties>
  </tile>
 </tileset>
 <tileset firstgid="3" source="beast_soldier.tsx"/>
 <layer id="1" name="ground" width="40" height="20">
  <properties>
   <property name="solid" type="bool" value="true"/>
  </properties>
  <data encoding="csv">
0,0,0,0,0,0,0,0,0,0,0,0,0,0,0,0,0,0,0,0,0,0,0,0,0,0,0,0,0,0,0,0,0,0,0,0,0,0,0,0,
0,0,0,0,0,0,0,0,0,0,0,0,0,0,0,0,0,0,0,0,0,0,0,0,0,0,0,0,0,0,0,0,0,0,0,0,0,0,0,0,
0,0,0,0,0,0,0,0,0,0,0,0,0,0,0,0,0,0,0,0,0,0,0,0,0,0,0,0,0,0,0,0,0,0,0,0,0,0,0,0,
0,0,0,0,0,0,0,0,0,0,0,0,0,0,0,0,0,0,0,0,0,0,0,0,0,0,0,0,0,0,0,0,0,0,0,0,0,0,0,0,
0,0,0,0,0,0,0,0,0,0,0,0,0,0,0,0,0,0,0,0,0,0,0,0,0,0,0,0,0,0,0,0,0,0,0,0,0,0,0,0,
0,0,0,0,0,0,0,0,0,0,0,0,0,0,0,0,0,0,0,0,0,0,0,0,0,0,0,0,0,0,0,0,0,0,0,0,0,0,0,0,
0,0,0,0,0,0,0,0,0,0,0,0,0,0,0,0,0,0,0,0,0,0,0,0,0,0,0,0,0,0,0,0,0,0,0,0,0,0,0,0,
0,0,0,0,0,0,0,0,0,0,0,0,0,0,0,0,0,0,0,0,0,0,0,0,0,0,0,0,0,0,0,0,0,0,0,0,0,0,0,0,
0,0,0,0,0,0,0,0,0,0,0,0,0,0,0,0,0,0,0,0,0,0,0,0,0,0,0,0,0,0,0,0,0,0,0,0,0,0,0,0,
0,0,0,0,0,0,0,0,0,0,0,0,0,0,0,0,0,0,0,0,0,0,0,0,0,0,0,0,0,0,0,0,0,0,0,0,0,0,0,0,
0,0,0,0,0,0,0,0,0,0,0,0,0,0,0,0,0,0,0,0,0,0,0,0,0,0,0,0,0,0,0,0,0,0,0,0,0,0,0,0,
0,0,0,0,0,0,0,0,0,0,0,0,0,0,0,0,0,0,0,0,0,0,0,0,0,0,0,0,0,0,0,0,0,0,0,0,0,0,0,0,
0,0,0,0,0,0,0,0,339,340,341,342,343,344,0,0,0,0,0,0,0,0,0,0,0,0,0,0,0,0,0,0,0,0,0,0,0,0,0,0,
0,0,0,0,0,0,0,0,0,0,0,0,0,0,0,0,0,0,0,0,0,0,0,0,0,0,0,0,0,0,0,0,0,0,0,0,0,0,0,0,
0,0,0,0,0,0,0,0,0,0,0,0,0,0,0,0,0,0,0,0,0,0,0,0,0,0,0,0,0,0,0,0,0,0,0,0,0,0,0,0,
602,603,604,605,606,602,603,604,605,606,602,603,604,605,606,602,603,604,605,606,602,603,604,605,606,602,603,604,605,606,602,603,604,605,606,0,0,0,0,0,
666,667,668,669,670,666,667,668,669,670,666,667,668,669,670,666,667,668,669,670,666,667,668,669,670,666,667,668,669,670,666,667,668,669,670,0,0,0,0,912,
730,731,732,733,734,735,730,730,730,730,730,730,730,730,730,730,730,730,730,730,730,730,730,730,730,730,730,730,730,730,730,730,730,730,730,730,730,730,730,730,
1,1,1,1,1,1,1,1,1,1,1,1,1,1,1,1,1,1,1,1,1,1,1,1,1,1,1,1,1,1,1,1,1,1,1,1,1,1,1,1,
1,1,1,1,1,1,1,1,1,1,1,1,1,1,1,1,1,1,1,1,1,1,1,1,1,1,1,1,1,1,1,1,1,1,1,1,1,1,1,1
</data>
 </layer>
 <layer id="2" name="decor" width="40" height="20" visible="0">
  <data encoding="csv">
1178,1179,1180,1181,1182,1183,1178,1179,1180,1181,1182,1183,1178,1179,1180,1181,1182,1183,1178,1179,1180,1181,1182,1183,1178,1179,1180,1181,1182,1183,1178,1179,1178,1179,1178,1179,1180,1181,1182,1183,
1178,1179,1180,1181,1182,1183,1178,1179,1180,1181,1182,1183,1178,1179,1180,1181,1182,1183,1178,1179,1180,1181,1182,1183,1178,1179,1180,1181,1182,1183,1178,1179,1178,1179,1178,1179,1180,1181,1182,1183,
1178,1179,1180,1181,1182,1183,1178,1179,1180,1181,1182,1183,1178,1179,1180,1181,1182,1183,1178,1179,1180,1181,1182,1183,1178,1179,1180,1181,1182,1183,1178,1179,1178,1179,1178,1179,1180,1181,1182,1183,
1178,1179,1180,1181,1182,1183,1178,1179,1180,1181,1182,1183,1178,1179,1180,1181,1182,1183,1178,1179,1180,1181,1182,1183,1178,1179,1180,1181,1182,1183,1178,1179,1178,1179,1178,1179,1180,1181,1182,1183,
1178,1179,1180,1181,1182,1183,1178,1179,1180,1181,1182,1183,1178,1179,1180,1181,1182,1183,1178,1179,1180,1181,1182,1183,1178,1179,1180,1181,1182,1183,1178,1179,1178,1179,1178,1179,1180,1181,1182,1183,
1178,1179,1180,1181,1182,1183,1178,1179,1180,1181,1182,1183,1178,1179,1180,1181,1182,1183,1178,1179,1180,1181,1182,1183,1178,1179,1180,1181,1182,1183,1178,1179,1178,1179,1178,1179,1180,1181,1182,1183,
1178,1179,1180,1181,1182,1183,1178,1179,1180,1181,1182,1183,1178,1179,1180,1181,1182,1183,1178,1179,1180,1181,1182,1183,1178,1179,1180,1181,1182,1183,1178,1179,1178,1179,1178,1179,1180,1181,1182,1183,
1178,1179,1180,1181,1182,1183,1178,1179,1180,1181,1182,1183,1178,1179,1180,1181,1182,1183,1178,1179,1180,1181,1182,1183,1178,1179,1180,1181,1182,1183,1178,1179,1178,1179,1178,1179,1180,1181,1182,1183,
1178,1179,1180,1181,1182,1183,1178,1179,1180,1181,1182,1183,1178,1179,1180,1181,1182,1183,1178,1179,1180,1181,1182,1183,1178,1179,1180,1181,1182,1183,1178,1179,1178,1179,1178,1179,1180,1181,1182,1183,
1178,1179,1180,1181,1182,1183,1178,1179,1180,1181,1182,1183,1178,1179,1180,1181,1182,1183,1178,1179,1180,1181,1182,1183,1178,1179,1180,1181,1182,1183,1178,1179,1178,1179,1178,1179,1180,1181,1182,1183,
1178,1179,1180,1181,1182,1183,1178,1179,1180,1181,1182,1183,1178,1179,1180,1181,1182,1183,1178,1179,1180,1181,1182,1183,1178,1179,1180,1181,1182,1183,1178,1179,1178,1179,1178,1179,1180,1181,1182,1183,
1178,1179,1180,1181,1182,1183,1178,1179,1180,1181,1182,1183,1178,1179,1180,1181,1182,1183,1178,1179,1180,1181,1182,1183,1178,1179,1180,1181,1182,1183,1178,1179,1178,1179,1178,1179,1180,1181,1182,1183,
1178,1179,1180,1181,1182,1183,1178,1179,0,0,0,0,0,0,1180,1180,1180,1180,1180,1180,1180,1180,1180,1180,1180,1180,1180,1180,1180,1180,1180,1180,1180,1180,1180,1180,1180,1180,1180,1180,
1180,1180,1180,1180,1180,1180,1180,1180,1180,1180,1180,1180,1180,1180,1180,1180,1180,1180,1180,1180,1180,1180,1180,1180,1180,1180,1180,1180,1180,1180,1180,1180,1180,1180,1180,1180,1180,1180,1180,1180,
774,775,776,777,778,1180,1180,1180,1180,1180,1180,1180,1180,1180,1180,1180,1180,1180,1180,1180,1180,1180,1180,1180,1180,1180,1180,1180,1180,1180,1180,1180,1180,1180,1180,1180,1180,1180,1180,1180,
602,603,604,605,606,602,603,604,605,606,602,603,604,605,606,602,603,604,605,606,602,603,604,605,606,602,603,604,605,606,602,603,604,605,606,850,850,602,603,604,
666,667,668,669,670,666,667,668,669,670,666,667,668,669,670,666,667,668,669,670,666,667,234,235,234,235,667,668,669,670,666,667,668,669,670,914,914,666,667,668,
0,0,0,0,0,0,0,0,0,0,0,0,0,0,0,0,0,0,0,0,0,0,0,0,0,0,0,0,0,0,0,0,0,0,0,0,0,0,0,0,
0,0,0,0,0,0,0,0,0,0,0,0,0,0,0,0,0,0,0,0,0,0,0,0,0,0,0,0,0,0,0,0,0,0,0,0,0,0,0,0,
0,0,0,0,0,0,0,0,0,0,0,0,0,0,0,0,0,0,0,0,0,0,0,0,0,0,0,0,0,0,0,0,0,0,0,0,0,0,0,0
</data>
 </layer>
 <objectgroup id="3" name="objects" visible="0">
  <object id="1" name="Player Spawn" type="player_spawn" x="96" y="512" width="32" height="32"/>
  <object id="2" name="Checkpoint" type="checkpoint" x="480" y="512" width="32" height="32"/>
  <object id="3" name="Spikes" type="hazard" x="720" y="512" width="96" height="64"/>
  <object id="4" name="Exit" type="level_exit" x="1121.33" y="472" width="64" height="64"/>
  <object id="5" name="Grunt Enemy" type="enemy_spawn" x="288" y="512" width="32" height="32">
   <properties>
    <property name="enemyType" type="string" value="grunt"/>
    <property name="patrolDistance" type="int" value="120"/>
   </properties>
  </object>
  <object id="6" name="Flyer Enemy" type="enemy_spawn" x="560" y="400" width="24" height="24">
   <properties>
    <property name="enemyType" type="string" value="flyer"/>
    <property name="patrolDistance" type="int" value="160"/>
   </properties>
  </object>
  <object id="7" name="Caster Enemy" type="enemy_spawn" x="800" y="512" width="28" height="40">
   <properties>
    <property name="enemyType" type="string" value="caster"/>
    <property name="patrolDistance" type="int" value="0"/>
   </properties>
  </object>
 </objectgroup>
</map>
